X: 2
T: Rolling In The Ryegrass
R: reel
M: 4/4
L: 1/8
K: Dmaj
|:A2AF DFAF|G2BG DGBG|A3F DFAF|GBAF E2D2:|
|:ABde f3d|g3e fedB|ABde fefg|afdf e2d2:|


Tune 87	Setting 23585

